src/assets/images/icon_grid_turbine_1.svg

<svg width="500" height="500" viewBox="0 0 500 500" fill="none" xmlns="http://www.w3.org/2000/svg">
<path d="M401.938 50.3936L198.99 210.615V220.629L204.273 230.63L214.345 235.316L239.713 229.308L264.414 210.615L336.558 135.311L405.939 53.3577L401.938 50.3936Z" fill="#FFDA00" fill-opacity="0.7"/>
<path d="M166.83 215.531L81.9298 69.2609C81.9298 69.2609 80.4398 64.0109 85.6698 61.4109C90.8998 58.8109 94.5498 62.8609 94.5498 62.8609L177.24 156.651C177.24 156.651 194.55 181.311 194.44 198.601" fill="#FFDA00" fill-opacity="0.7"/>
<path d="M166.83 215.531L81.9298 69.2609C81.9298 69.2609 80.4398 64.0109 85.6698 61.4109C90.8998 58.8109 94.5498 62.8609 94.5498 62.8609L177.24 156.651C177.24 156.651 194.55 181.311 194.44 198.601" stroke="#2071B5" stroke-width="4.20561" stroke-miterlimit="10"/>
<path d="M285.66 279.949L285.56 386.449" stroke="#2071B5" stroke-width="4.20561" stroke-miterlimit="10"/>
<path d="M234.49 290.11L233.95 376.13C233.95 376.13 237.59 390.84 264.12 391.33C290.65 391.82 292.47 377.41 292.47 377.41L294.43 277.83L233.72 290.35" stroke="#2071B5" stroke-width="4.20561" stroke-miterlimit="10"/>
<path d="M245.74 288.531V387.021" stroke="#2071B5" stroke-width="4.20561" stroke-miterlimit="10"/>
<path d="M257.72 285.031V390.651" stroke="#2071B5" stroke-width="4.20561" stroke-miterlimit="10"/>
<path d="M274.41 282.85L274.6 390.29" stroke="#2071B5" stroke-width="4.20561" stroke-miterlimit="10"/>
<path opacity="0.5" d="M234.49 293.03C234.49 293.03 247.2 300.49 268.25 299C289.3 297.52 294.17 286.85 294.17 286.85" stroke="#2071B5" stroke-width="4.20561" stroke-miterlimit="10"/>
<path opacity="0.5" d="M234.49 303.55C234.49 303.55 247.2 311.01 268.25 309.52C289.3 308.04 294.17 297.37 294.17 297.37" stroke="#2071B5" stroke-width="4.20561" stroke-miterlimit="10"/>
<path opacity="0.5" d="M234.36 311.229C234.36 311.229 248.11 323.509 265.34 321.509C282.57 319.509 292.06 313.599 293.77 311.229" stroke="#2071B5" stroke-width="4.20561" stroke-miterlimit="10"/>
<path opacity="0.5" d="M234.05 323.491C234.05 323.491 247.8 335.771 265.03 333.771C282.26 331.771 291.75 325.861 293.46 323.491" stroke="#2071B5" stroke-width="4.20561" stroke-miterlimit="10"/>
<path opacity="0.5" d="M234.2 335.491C234.2 335.491 250.46 347.101 265.7 344.191C280.94 341.281 291.05 338.271 293.32 334.071" stroke="#2071B5" stroke-width="4.20561" stroke-miterlimit="10"/>
<path opacity="0.5" d="M234.5 346.85C234.5 346.85 250.76 358.46 266 355.55C281.24 352.64 291.35 349.63 293.62 345.43" stroke="#2071B5" stroke-width="4.20561" stroke-miterlimit="10"/>
<path opacity="0.5" d="M234.06 358.71C234.06 358.71 250.57 369.98 263.77 367.79C276.96 365.6 291.73 362.16 292.87 357.26" stroke="#2071B5" stroke-width="4.20561" stroke-miterlimit="10"/>
<path opacity="0.5" d="M234.06 370.659C234.06 370.659 250.57 381.929 263.77 379.739C276.96 377.549 291.73 374.109 292.87 369.209" stroke="#2071B5" stroke-width="4.20561" stroke-miterlimit="10"/>
<path d="M222 190.999C213.58 193.859 205.1 197.179 196.72 201.039C135.94 229.039 152.86 256.299 157.94 260.379C167.86 268.339 179.65 274.239 180.37 273.599C182.7 271.569 190.46 267.099 195.25 266.159C201.06 265.019 206.01 263.439 213.4 266.159C215.57 266.959 217.59 270.029 216.3 271.419C215.02 272.809 213.75 273.669 213.75 273.669L213.94 281.029L232.58 289.969L293.29 277.449C293.29 277.449 356.89 256.699 357.55 253.979C358.21 251.259 376.42 212.189 374.94 205.709C373.46 199.229 371.46 192.039 367.28 189.379C363.1 186.709 333.52 170.819 327.9 172.329C326.31 172.759 314.41 172.949 296.78 174.909" stroke="#2071B5" stroke-width="4.20561" stroke-miterlimit="10"/>
<path d="M375.93 205.981C375.93 205.981 355.42 215.131 353.54 214.871C351.65 214.611 309.44 232.231 309.44 232.231C309.44 232.231 276.88 244.161 273.51 243.481C273.4 243.461 271.61 243.131 270.4 243.551C269.33 243.921 268.38 244.551 267.61 245.381C265.39 247.761 262.29 253.601 262.17 253.831C261.83 254.461 253.09 273.471 251.26 277.431C251.04 277.901 250.65 278.271 250.17 278.461C248.66 279.051 245.26 280.261 243.58 279.981C241.38 279.611 236.44 279.371 234.24 277.661C232.39 276.231 223.69 270.621 220.97 268.871C220.5 268.571 220.31 267.971 220.52 267.451C221.72 264.521 225.48 255.351 225.7 254.241C226.25 251.501 227.12 245.101 226.5 240.581C225.96 236.581 225.26 233.701 224.5 234.231C222.7 235.491 221.89 238.041 221.89 238.041C221.89 238.041 216.91 240.731 214.53 240.581C210.87 240.351 197.69 237.441 194.56 230.601C191.43 223.761 186.23 214.541 198.38 209.851C199.87 209.281 193.27 216.271 200.63 226.241C206.48 234.171 214.09 237.351 223.42 233.501C232.21 229.871 240.48 227.691 240.48 227.691L261.16 212.011L315.35 157.591L386.22 78.1707L404.11 55.7207C404.11 55.7207 406.65 51.9607 403.57 50.1707C400.49 48.3807 386.79 60.7907 386.79 60.7907L226.34 188.491C226.34 188.491 199.37 210.071 198.62 209.901" stroke="#2071B5" stroke-width="4.20561" stroke-miterlimit="10"/>
<path d="M181.78 273.601L182.84 277.431C182.9 277.641 183.13 277.751 183.33 277.661C185.41 276.691 195.36 272.111 199.26 271.421C203.64 270.651 214.08 267.671 215.06 273.481" stroke="#2071B5" stroke-width="4.20561" stroke-miterlimit="10"/>
<path d="M168.16 218.98L167.14 215.82C167.12 215.75 167.14 215.68 167.18 215.63C167.94 214.69 174.94 206.6 181.32 204C187.13 201.64 193.28 198.3 194.99 199.05C197.28 200.06 197.66 201.22 197.66 201.22" stroke="#2071B5" stroke-width="4.20561" stroke-miterlimit="10"/>
<path d="M183.13 277.7L201.29 445.74C201.29 445.74 203.18 450.86 208.93 449.88C214.69 448.9 215.25 443.48 215.25 443.48L220.75 336.01C220.77 335.58 220.75 335.15 220.69 334.73C219.96 329.54 213.598 288.538 213.958 271.138" fill="#FFDA00" fill-opacity="0.7"/>
<path d="M183.13 277.7L201.29 445.74C201.29 445.74 203.18 450.86 208.93 449.88C214.69 448.9 215.25 443.48 215.25 443.48L220.75 336.01C220.77 335.58 220.75 335.15 220.69 334.73C219.96 329.54 213.598 288.538 213.958 271.138" stroke="#2071B5" stroke-width="4.20561" stroke-miterlimit="10"/>
<path opacity="0.7" d="M157 239.301C157 239.301 172.63 220.581 182.77 218.221" stroke="#2071B5" stroke-width="4.20561" stroke-miterlimit="10"/>
<path opacity="0.7" d="M158.39 242.349C158.39 242.349 178.6 228.689 189 229.239" stroke="#2071B5" stroke-width="4.20561" stroke-miterlimit="10"/>
<path opacity="0.7" d="M158.95 246.561C158.95 246.561 188.84 240.541 189.84 239.311" stroke="#2071B5" stroke-width="4.20561" stroke-miterlimit="10"/>
<path opacity="0.7" d="M158.39 249.94C158.39 249.94 189.48 256.32 192.78 256.2" stroke="#2071B5" stroke-width="4.20561" stroke-miterlimit="10"/>
<path opacity="0.7" d="M157.99 253.44C158.92 254.42 184.73 266.42 187.03 266.16" stroke="#2071B5" stroke-width="4.20561" stroke-miterlimit="10"/>
</svg>

<?xml version="1.0" encoding="UTF-8"?>
<svg id="icons" xmlns="http://www.w3.org/2000/svg" viewBox="0 0 500 500">
  <defs>
    <style>
      .cls-1 {
        opacity: .7;
        stroke-width: .3px;
      }

      .cls-1, .cls-2, .cls-3 {
        fill: none;
        stroke: #000;
        stroke-miterlimit: 10;
      }

      .cls-2, .cls-3 {
        stroke-width: .73px;
      }

      .cls-3 {
        opacity: .5;
      }
    </style>
  </defs>
  <line class="cls-2" x1="285.66" y1="279.95" x2="285.56" y2="386.45"/>
  <path class="cls-2" d="M234.49,290.11l-.54,86.02s3.64,14.71,30.17,15.2c26.53.49,28.35-13.92,28.35-13.92l1.96-99.58-60.71,12.52"/>
  <line class="cls-2" x1="245.74" y1="288.53" x2="245.74" y2="387.02"/>
  <line class="cls-2" x1="257.72" y1="285.03" x2="257.72" y2="390.65"/>
  <line class="cls-2" x1="274.41" y1="282.85" x2="274.6" y2="390.29"/>
  <path class="cls-3" d="M234.49,293.03s12.71,7.46,33.76,5.97c21.05-1.48,25.92-12.15,25.92-12.15"/>
  <path class="cls-3" d="M234.49,303.55s12.71,7.46,33.76,5.97c21.05-1.48,25.92-12.15,25.92-12.15"/>
  <path class="cls-3" d="M234.36,311.23s13.75,12.28,30.98,10.28c17.23-2,26.72-7.91,28.43-10.28"/>
  <path class="cls-3" d="M234.05,323.49s13.75,12.28,30.98,10.28c17.23-2,26.72-7.91,28.43-10.28"/>
  <path class="cls-3" d="M234.2,335.49s16.26,11.61,31.5,8.7c15.24-2.91,25.35-5.92,27.62-10.12"/>
  <path class="cls-3" d="M234.5,346.85s16.26,11.61,31.5,8.7c15.24-2.91,25.35-5.92,27.62-10.12"/>
  <path class="cls-3" d="M234.06,358.71s16.51,11.27,29.71,9.08c13.19-2.19,27.96-5.63,29.1-10.53"/>
  <path class="cls-3" d="M234.06,370.66s16.51,11.27,29.71,9.08c13.19-2.19,27.96-5.63,29.1-10.53"/>
  <path class="cls-2" d="M222,191c-8.42,2.86-16.9,6.18-25.28,10.04-60.78,28-43.86,55.26-38.78,59.34,9.92,7.96,21.71,13.86,22.43,13.22,2.33-2.03,10.09-6.5,14.88-7.44,5.81-1.14,10.76-2.72,18.15,0,2.17.8,4.19,3.87,2.9,5.26-1.28,1.39-2.55,2.25-2.55,2.25l.19,7.36,18.64,8.94,60.71-12.52s63.6-20.75,64.26-23.47c.66-2.72,18.87-41.79,17.39-48.27-1.48-6.48-3.48-13.67-7.66-16.33-4.18-2.67-33.76-18.56-39.38-17.05-1.59.43-13.49.62-31.12,2.58"/>
  <path class="cls-2" d="M375.93,205.98s-20.51,9.15-22.39,8.89c-1.89-.26-44.1,17.36-44.1,17.36,0,0-32.56,11.93-35.93,11.25-.11-.02-1.9-.35-3.11.07-1.07.37-2.02,1-2.79,1.83-2.22,2.38-5.32,8.22-5.44,8.45-.34.63-9.08,19.64-10.91,23.6-.22.47-.61.84-1.09,1.03-1.51.59-4.91,1.8-6.59,1.52-2.2-.37-7.14-.61-9.34-2.32-1.85-1.43-10.55-7.04-13.27-8.79-.47-.3-.66-.9-.45-1.42,1.2-2.93,4.96-12.1,5.18-13.21.55-2.74,1.42-9.14.8-13.66-.54-4-1.24-6.88-2-6.35-1.8,1.26-2.61,3.81-2.61,3.81,0,0-4.98,2.69-7.36,2.54-3.66-.23-16.84-3.14-19.97-9.98-3.13-6.84-8.33-16.06,3.82-20.75,1.49-.57-5.11,6.42,2.25,16.39,5.85,7.93,13.46,11.11,22.79,7.26,8.79-3.63,17.06-5.81,17.06-5.81l20.68-15.68,54.19-54.42,70.87-79.42,17.89-22.45s2.54-3.76-.54-5.55c-3.08-1.79-16.78,10.62-16.78,10.62l-160.45,127.7s-26.97,21.58-27.72,21.41"/>
  <path class="cls-2" d="M181.78,273.6l1.06,3.83c.06.21.29.32.49.23,2.08-.97,12.03-5.55,15.93-6.24,4.38-.77,14.82-3.75,15.8,2.06"/>
  <path class="cls-2" d="M168.16,218.98l-1.02-3.16c-.02-.07,0-.14.04-.19.76-.94,7.76-9.03,14.14-11.63,5.81-2.36,11.96-5.7,13.67-4.95,2.29,1.01,2.67,2.17,2.67,2.17"/>
  <path class="cls-2" d="M166.83,215.53L81.93,69.26s-1.49-5.25,3.74-7.85,8.88,1.45,8.88,1.45l82.69,93.79s17.31,24.66,17.2,41.95"/>
  <path class="cls-2" d="M183.13,277.7l18.16,168.04s1.89,5.12,7.64,4.14c5.76-.98,6.32-6.4,6.32-6.4l5.5-107.47c.02-.43,0-.86-.06-1.28-.73-5.19-5.81-44.09-5.45-61.49"/>
  <path class="cls-1" d="M157,239.3s15.63-18.72,25.77-21.08"/>
  <path class="cls-1" d="M158.39,242.35s20.21-13.66,30.61-13.11"/>
  <path class="cls-1" d="M158.95,246.56s29.89-6.02,30.89-7.25"/>
  <path class="cls-1" d="M158.39,249.94s31.09,6.38,34.39,6.26"/>
  <path class="cls-1" d="M157.99,253.44c.93.98,26.74,12.98,29.04,12.72"/>
</svg>
